X:26
T:March by Hands,A. JClw.26
M:4/4
L:1/8
Q:1/4=160
S:J.Clews MS,Stoke-upon-Tern,Shrops.1832
R:.march
A:N. Shropshire
N:…by Handel?
Z:Neil Brookes 2006
K:D
fg|a2a2a2d2|edef e2g2|f2 ed fagf|e2A2A2A2|!
d2ddd2d2|f2ddd2d2|fgaba2^g2|a6::!
cd|e2e2e2gf|edcB^A2A2|Bdce dgfe|d2c2B2fg|!
a2c2 cagf|g2E2 Egfe|fdge fagf|{f}e6(3ABc|!
d2D2defg|a2c2 cbag|fdAg f2e2|d6:|

